apps/service-portal/src/assets/images/404.svg

<svg width="380" height="380" fill="none" xmlns="http://www.w3.org/2000/svg"><path d="M249.876 272.422v26.745c0 12.178-15.414 26.708-15.414 26.708h-34.366s-15.414-14.53-15.414-26.708v-26.745h65.194Zm-105.247-55.823c-6.591 0-11.923-5.342-11.923-11.923 0-1.604.319-3.127.893-4.521-2.78-.246-5.661.109-8.186.884a13.641 13.641 0 0 1-3.19.565c1.385-24.347-20.984-22.087-20.984-22.087s-2.67 14.84 10.337 20.565c-7.694-.155-15.597 3.828-13.591 15.925 2.023 12.242 10.446 18.659 15.742 20.209a4.456 4.456 0 0 0 4.512-1.24 4.456 4.456 0 0 1 6.527 0 4.457 4.457 0 0 0 4.512 1.24c5.214-1.523 13.737-7.776 15.642-19.635-.1.009-.191.018-.291.018ZM121.156 94.16c-7.019 17.474-2.707 38.203 12.261 51.329 14.812 12.981 35.632 14.649 51.967 5.725L121.156 94.16Z" fill="url(#a)"/><path d="M253.531 91.535a5.45 5.45 0 1 0 0-10.902 5.45 5.45 0 0 0 0 10.902ZM99.853 331.327a5.452 5.452 0 1 0 0-10.904 5.452 5.452 0 0 0 0 10.904Z" fill="#0061FF"/><path d="M217.279 283.999h-35.45a1.366 1.366 0 0 1-1.367-1.367c0-.757.611-1.368 1.367-1.368h35.45c.757 0 1.368.611 1.368 1.368 0 .756-.611 1.367-1.368 1.367ZM256.986 308.62c-7.538 0-13.682-6.135-13.682-13.682 0-7.548 6.135-13.683 13.682-13.683 7.548 0 13.683 6.135 13.683 13.683 0 7.547-6.144 13.682-13.683 13.682Zm0-24.621c-6.034 0-10.947 4.913-10.947 10.948 0 6.034 4.913 10.947 10.947 10.947 6.035 0 10.948-4.913 10.948-10.947 0-6.035-4.913-10.948-10.948-10.948ZM128.002 237.774a5.804 5.804 0 0 1-4.248-1.859 3.05 3.05 0 0 0-2.261-.985 3.05 3.05 0 0 0-2.26.985 5.803 5.803 0 0 1-5.898 1.622c-6.672-1.959-14.749-9.452-16.709-21.302-1.276-7.703 1.386-11.869 3.838-14.011 4.922-4.302 12.516-4.029 17.511-2.488 2.297.711 4.731.711 7.037 0 4.895-1.505 12.342-1.805 17.21 2.342 2.498 2.124 5.241 6.299 4.148 14.129-1.887 13.564-11.759 19.89-16.718 21.34a6.464 6.464 0 0 1-1.65.227Zm-6.509-5.578c1.614 0 3.164.674 4.267 1.85a3.06 3.06 0 0 0 3.126.857c4.366-1.276 13.081-6.909 14.776-19.088.739-5.296-.346-9.225-3.208-11.668-4.02-3.427-10.392-3.117-14.631-1.804a14.58 14.58 0 0 1-8.65 0c-4.667-1.441-11.094-1.404-14.904 1.932-2.808 2.452-3.792 6.326-2.935 11.504 2.033 12.306 10.555 17.884 14.776 19.124 1.13.328 2.324 0 3.127-.857a5.824 5.824 0 0 1 4.256-1.85ZM163.352 151.496c-22.388 0-40.61-18.212-40.61-40.609 0-22.397 18.213-40.61 40.61-40.61s40.609 18.213 40.609 40.61c0 .757-.611 1.367-1.367 1.367-.757 0-1.367-.61-1.367-1.367 0-20.884-16.992-37.875-37.875-37.875-20.884 0-37.875 16.991-37.875 37.875s16.991 37.875 37.875 37.875a37.912 37.912 0 0 0 28.513-12.944 1.37 1.37 0 1 1 2.06 1.805 40.645 40.645 0 0 1-30.573 13.873Z" fill="#6A2EA0"/><path d="M180.106 127.732c-.319 0-.638-.109-.893-.328l-17.958-15.478a1.363 1.363 0 0 1-.474-1.039v-48.13c0-.756.611-1.367 1.368-1.367.756 0 1.367.61 1.367 1.367v47.501l17.483 15.068a1.37 1.37 0 0 1 .146 1.932c-.273.31-.647.474-1.039.474ZM271.635 327.243H143.608a1.366 1.366 0 0 1-1.368-1.367c0-.757.611-1.368 1.368-1.368h128.027c.756 0 1.367.611 1.367 1.368 0 .756-.611 1.367-1.367 1.367Z" fill="#6A2EA0"/><path d="M195.201 238.768a1.366 1.366 0 0 1-1.367-1.367v-27.137c0-14.576 11.859-26.435 26.435-26.435h50.563c7.074 0 12.826-5.752 12.826-12.825 0-7.074-5.752-12.826-12.826-12.826h-15.359c-17.137 0-31.084-13.947-31.084-31.084v-27.009c0-27.328-22.233-49.552-49.552-49.552h-12.688c-.757 0-1.368-.61-1.368-1.367 0-.756.611-1.367 1.368-1.367h12.688c28.833 0 52.287 23.454 52.287 52.286v27.009c0 15.633 12.716 28.349 28.349 28.349h15.369c8.577 0 15.56 6.983 15.56 15.561 0 8.577-6.983 15.56-15.56 15.56h-50.564c-13.072 0-23.7 10.628-23.7 23.7v27.137a1.38 1.38 0 0 1-1.377 1.367ZM121.494 202.999a1.365 1.365 0 0 1-1.367-1.367v-13.929c0-.757.61-1.367 1.367-1.367.756 0 1.367.61 1.367 1.367v13.929c0 .756-.611 1.367-1.367 1.367ZM217.279 264.291c-.757 0-1.367-.61-1.367-1.367v-35.113c0-.756.61-1.367 1.367-1.367s1.367.611 1.367 1.367v35.113c0 .757-.61 1.367-1.367 1.367Z" fill="#6A2EA0"/><defs><linearGradient id="a" x1="134.383" y1="287.932" x2="214.982" y2="148.331" gradientUnits="userSpaceOnUse"><stop stop-color="#FF4C84"/><stop offset=".119" stop-color="#F94F88"/><stop offset=".274" stop-color="#E95594"/><stop offset=".449" stop-color="#CE5FA6"/><stop offset=".638" stop-color="#A96DC0"/><stop offset=".837" stop-color="#797FE0"/><stop offset="1" stop-color="#4C90FF"/></linearGradient></defs></svg>

<svg width="380" height="380" viewBox="0 0 380 380" fill="none" xmlns="http://www.w3.org/2000/svg">
<path d="M249.876 272.422C249.876 272.422 249.876 286.989 249.876 299.167C249.876 311.345 234.462 325.875 234.462 325.875H227.634H206.924H200.096C200.096 325.875 184.682 311.345 184.682 299.167C184.682 286.989 184.682 272.422 184.682 272.422H204.8H229.749H249.876ZM144.629 216.599C138.038 216.599 132.706 211.257 132.706 204.676C132.706 203.072 133.025 201.549 133.599 200.155C130.819 199.909 127.938 200.264 125.413 201.039C124.374 201.358 123.298 201.54 122.223 201.604C123.608 177.257 101.239 179.517 101.239 179.517C101.239 179.517 98.5681 194.357 111.576 200.082C103.882 199.927 95.9793 203.91 97.9847 216.007C100.008 228.249 108.431 234.666 113.727 236.216C115.35 236.69 117.091 236.207 118.239 234.976C119.999 233.08 122.998 233.08 124.766 234.976C125.915 236.207 127.656 236.69 129.278 236.216C134.492 234.693 143.015 228.44 144.92 216.581C144.82 216.59 144.729 216.599 144.629 216.599ZM121.156 94.16C114.137 111.634 118.449 132.363 133.417 145.489C148.229 158.47 169.049 160.138 185.384 151.214L121.156 94.16Z" fill="url(#paint0_linear_11312_96337)"/>
<path d="M253.531 91.5348C256.542 91.5348 258.982 89.0943 258.982 86.0838C258.982 83.0732 256.542 80.6327 253.531 80.6327C250.521 80.6327 248.08 83.0732 248.08 86.0838C248.08 89.0943 250.521 91.5348 253.531 91.5348Z" fill="#0061FF"/>
<path d="M99.8535 331.327C102.864 331.327 105.305 328.886 105.305 325.875C105.305 322.865 102.864 320.424 99.8535 320.424C96.843 320.424 94.4025 322.865 94.4025 325.875C94.4025 328.886 96.843 331.327 99.8535 331.327Z" fill="#0061FF"/>
<path d="M217.279 283.999H181.829C181.073 283.999 180.462 283.388 180.462 282.632C180.462 281.875 181.073 281.264 181.829 281.264H217.279C218.036 281.264 218.647 281.875 218.647 282.632C218.647 283.388 218.036 283.999 217.279 283.999Z" fill="#6A2EA0"/>
<path d="M256.986 308.62C249.448 308.62 243.304 302.485 243.304 294.938C243.304 287.39 249.439 281.255 256.986 281.255C264.534 281.255 270.669 287.39 270.669 294.938C270.669 302.485 264.525 308.62 256.986 308.62ZM256.986 283.999C250.952 283.999 246.039 288.912 246.039 294.947C246.039 300.981 250.952 305.894 256.986 305.894C263.021 305.894 267.934 300.981 267.934 294.947C267.934 288.912 263.021 283.999 256.986 283.999Z" fill="#6A2EA0"/>
<path d="M128.002 237.774C126.416 237.774 124.875 237.118 123.754 235.915C123.162 235.277 122.359 234.93 121.493 234.93C120.628 234.93 119.825 235.277 119.233 235.915C117.72 237.537 115.459 238.157 113.335 237.537C106.663 235.578 98.5863 228.085 96.6265 216.235C95.3503 208.532 98.012 204.366 100.464 202.224C105.386 197.922 112.98 198.195 117.975 199.736C120.272 200.447 122.706 200.447 125.012 199.736C129.907 198.231 137.354 197.931 142.222 202.078C144.72 204.202 147.463 208.377 146.37 216.207C144.483 229.771 134.611 236.097 129.652 237.547C129.105 237.692 128.549 237.774 128.002 237.774ZM121.493 232.196C123.107 232.196 124.657 232.87 125.76 234.046C126.562 234.903 127.756 235.24 128.886 234.903C133.252 233.627 141.967 227.994 143.662 215.815C144.401 210.519 143.316 206.59 140.454 204.147C136.434 200.72 130.062 201.03 125.823 202.343C122.998 203.218 120.008 203.218 117.173 202.343C112.506 200.902 106.079 200.939 102.269 204.275C99.4614 206.727 98.4769 210.601 99.3338 215.779C101.367 228.085 109.889 233.663 114.11 234.903C115.24 235.231 116.434 234.903 117.237 234.046C118.33 232.87 119.88 232.196 121.493 232.196Z" fill="#6A2EA0"/>
<path d="M163.352 151.496C140.964 151.496 122.742 133.284 122.742 110.887C122.742 88.4903 140.955 70.2775 163.352 70.2775C185.749 70.2775 203.961 88.4903 203.961 110.887C203.961 111.644 203.35 112.254 202.594 112.254C201.837 112.254 201.227 111.644 201.227 110.887C201.227 90.0034 184.235 73.0122 163.352 73.0122C142.468 73.0122 125.477 90.0034 125.477 110.887C125.477 131.771 142.468 148.762 163.352 148.762C174.272 148.762 184.664 144.04 191.865 135.818C192.357 135.253 193.223 135.189 193.797 135.69C194.363 136.192 194.426 137.048 193.925 137.623C186.204 146.437 175.065 151.496 163.352 151.496Z" fill="#6A2EA0"/>
<path d="M180.106 127.732C179.787 127.732 179.468 127.623 179.213 127.404L161.255 111.926C160.954 111.671 160.781 111.288 160.781 110.887V62.7573C160.781 62.0007 161.392 61.39 162.149 61.39C162.905 61.39 163.516 62.0007 163.516 62.7573V110.258L180.999 125.326C181.574 125.818 181.637 126.684 181.145 127.258C180.872 127.568 180.498 127.732 180.106 127.732Z" fill="#6A2EA0"/>
<path d="M271.635 327.243H143.608C142.851 327.243 142.24 326.632 142.24 325.876C142.24 325.119 142.851 324.508 143.608 324.508H271.635C272.391 324.508 273.002 325.119 273.002 325.876C273.002 326.632 272.391 327.243 271.635 327.243Z" fill="#6A2EA0"/>
<path d="M195.201 238.768C194.445 238.768 193.834 238.157 193.834 237.401V210.264C193.834 195.688 205.693 183.829 220.269 183.829H270.832C277.906 183.829 283.658 178.077 283.658 171.004C283.658 163.93 277.906 158.178 270.832 158.178H255.473C238.336 158.178 224.389 144.231 224.389 127.094V100.085C224.389 72.7569 202.156 50.5334 174.837 50.5334H162.149C161.392 50.5334 160.781 49.9226 160.781 49.1661C160.781 48.4095 161.392 47.7987 162.149 47.7987H174.837C203.67 47.7987 227.124 71.2529 227.124 100.085V127.094C227.124 142.727 239.84 155.443 255.473 155.443H270.842C279.419 155.443 286.402 162.426 286.402 171.004C286.402 179.581 279.419 186.564 270.842 186.564H220.278C207.206 186.564 196.578 197.192 196.578 210.264V237.401C196.569 238.157 195.958 238.768 195.201 238.768Z" fill="#6A2EA0"/>
<path d="M121.494 202.999C120.737 202.999 120.127 202.388 120.127 201.632V187.703C120.127 186.946 120.737 186.336 121.494 186.336C122.25 186.336 122.861 186.946 122.861 187.703V201.632C122.861 202.388 122.25 202.999 121.494 202.999Z" fill="#6A2EA0"/>
<path d="M217.279 264.291C216.522 264.291 215.912 263.681 215.912 262.924V227.811C215.912 227.055 216.522 226.444 217.279 226.444C218.036 226.444 218.646 227.055 218.646 227.811V262.924C218.646 263.681 218.036 264.291 217.279 264.291Z" fill="#6A2EA0"/>
<defs>
<linearGradient id="paint0_linear_11312_96337" x1="134.383" y1="287.932" x2="214.982" y2="148.331" gradientUnits="userSpaceOnUse">
<stop stop-color="#FF4C84"/>
<stop offset="0.1191" stop-color="#F94F88"/>
<stop offset="0.2741" stop-color="#E95594"/>
<stop offset="0.4489" stop-color="#CE5FA6"/>
<stop offset="0.6382" stop-color="#A96DC0"/>
<stop offset="0.8369" stop-color="#797FE0"/>
<stop offset="1" stop-color="#4C90FF"/>
</linearGradient>
</defs>
</svg>
